X: 2363
M: C
L: 1/8
K: A
(uagf) | e>fe>d c>dc>B | (3AcB (3AGF E>EF>G |\
[1 A>GA>c e>cA>c | B>e^d>f e2 :|\
[2 (3AGA (3cBA (3Bfe (3dcB |
^d>ba>f d>Bc>d |[1 (3egf (3e^dc B2 :|[2 e2g2e2 |]


